apps/spreadsheeteditor/main/resources/img/toolbar/2.5x/big/btn-remove-duplicates.svg

<svg width="28" height="28" fill="none" xmlns="http://www.w3.org/2000/svg"><g opacity=".4" fill="#000"><path d="M3 7h7v3H3V7zM18 7h7v3h-7V7zM10 15H3v3h7v-3z"/></g><path d="M4 8h5v1H4V8zM9 12H4v1h5v-1zM4 20h5v1H4v-1zM9 16H4v1h5v-1z" fill="#000"/><path fill-rule="evenodd" clip-rule="evenodd" d="M11 6H2v17h9V6zm-1 1H3v3h7V7zm0 7H3v-3h7v3zm-7 8v-3h7v3H3zm0-7h7v3H3v-3z" fill="#000"/><path d="M24 8h-5v1h5V8zM24 12h-5v1h5v-1z" fill="#000"/><path fill-rule="evenodd" clip-rule="evenodd" d="M17 23h9V6h-9v17zm8-16h-7v3h7V7zm0 7h-7v-3h7v3zm-7 8v-3h7v3h-7zm7-7v3h-7v-3h7z" fill="#000"/><path d="m16.207 14.5-2.353-2.354-.708.708L14.293 14H12v1h2.293l-1.147 1.146.708.708 2.353-2.354z" fill="#000"/></svg>

<svg width="28" height="28" viewBox="0 0 28 28" fill="none" xmlns="http://www.w3.org/2000/svg">
<path fill-rule="evenodd" clip-rule="evenodd" d="M10 7H3V10H10V7ZM11 10V7V6H10H3H2V7V10V11V14V15V18V19V22V23H3H10H11V22V19V18V15V14V11V10ZM10 14H3V11H10V14ZM3 22V19H10V22H3ZM3 15H10V18H3V15ZM4 8H9V9H4V8ZM9 12H4V13H9V12ZM4 20H9V21H4V20ZM9 16H4V17H9V16ZM24 8H19V9H24V8ZM25 7H18V10H25V7ZM17 7V10V11V14V15V18V19V22V23H18H25H26V22V19V18V15V14V11V10V7V6H25H18H17V7ZM25 14H18V11H25V14ZM18 22V19H25V22H18ZM25 15V18H18V15H25ZM24 12H19V13H24V12ZM16.2071 14.5L13.8536 12.1465L13.1464 12.8536L14.2929 14H12V15H14.2929L13.1464 16.1465L13.8536 16.8536L16.2071 14.5Z" fill="black"/>
<path opacity="0.4" fill-rule="evenodd" clip-rule="evenodd" d="M3 7H10V10H3V7ZM18 7H25V10H18V7ZM10 15H3V18H10V15Z" fill="black"/>
</svg>
